X:1
T:[ID 2-82]
T:[ID 2-82]
T:Bezeichnung standardisiert: Menuet [mit Trio] Men\"uet Con Trio 4.
T:Urheber unbekannt Datum in der hier transkribierten schriftlichen Quelle: 1767
C:Urheber unbekannt
C:Datum in der hier transkribierten schriftlichen Quelle: 1767
L:1/8
M:3/4
K:A
V:1 treble 
V:1
 aecAce | ae d2 c2 | bgeBGE | FA G2 F2 | (3GFE (3AGF B2 | (3BAB (3cBc d2 | d2 fedc |{c} B6 :: %8
 eBGEGB | eB A2 G2 |"^[sic]" fd_BA_EB, | FA G2 F2 | GB edcB | (3cBA (3dcB e2 | (3fed c2 B2 | %15
{B} A6 :|[M:3/4]"^Trio" !fermata!E4 A2 |{A} G4 F2 | E4 d2 |{d} c4 B2 | A2 A2 G2 | F2 F2 E2 | %22
 D2 D2 C2 |{C} B,6 :: E4 =G2 | FE F4 | F4 A2 | GF G4 | d4 c2 |{c} B2 AG A2 | D2 C2 B,2 |{B,} A,6 :| %32

